images/sql-logo-greyscale.svg

<svg xmlns="http://www.w3.org/2000/svg" xmlns:xlink="http://www.w3.org/1999/xlink" width="80" zoomAndPan="magnify" viewBox="0 0 60 60" height="80" preserveAspectRatio="xMidYMid meet" version="1.0"><path fill="#737373" d="M 26.4375 59.960938 C 20.820312 59.558594 15.269531 58.144531 11.867188 56.25 C 9.925781 55.171875 8.449219 53.847656 7.871094 52.667969 L 7.527344 51.964844 L 7.527344 7.894531 L 7.796875 7.339844 C 9.019531 4.863281 12.910156 2.628906 18.34375 1.292969 C 20.1875 0.835938 22.851562 0.382812 25.023438 0.15625 C 27.242188 -0.078125 33.121094 -0.0429688 35.335938 0.21875 C 41.214844 0.910156 46.21875 2.457031 49.304688 4.535156 C 50.492188 5.339844 51.714844 6.621094 52.128906 7.503906 L 52.480469 8.261719 L 52.453125 30.230469 L 52.421875 52.199219 L 52.136719 52.777344 C 51.980469 53.097656 51.507812 53.722656 51.085938 54.167969 C 48.523438 56.886719 43.019531 58.898438 35.804688 59.753906 C 34.335938 59.929688 27.945312 60.070312 26.4375 59.960938 Z M 36.789062 41.082031 C 36.765625 41.023438 35.925781 40.277344 34.921875 39.417969 C 33.917969 38.558594 33.054688 37.816406 33 37.769531 C 32.945312 37.71875 33.132812 37.542969 33.414062 37.378906 C 33.691406 37.21875 34.226562 36.761719 34.601562 36.367188 C 35.699219 35.214844 36.21875 33.792969 36.21875 31.933594 C 36.21875 30.097656 35.660156 28.621094 34.542969 27.492188 C 33.414062 26.351562 32.121094 25.863281 30.234375 25.863281 C 27.328125 25.863281 25.097656 27.558594 24.386719 30.308594 C 24.140625 31.253906 24.140625 33.164062 24.386719 34.003906 C 25.03125 36.1875 26.78125 37.777344 28.957031 38.152344 C 29.695312 38.277344 29.792969 38.332031 30.296875 38.878906 C 30.59375 39.207031 31.207031 39.859375 31.65625 40.328125 L 32.476562 41.183594 L 34.652344 41.183594 C 35.847656 41.183594 36.808594 41.136719 36.789062 41.082031 Z M 29.324219 34.988281 C 28.800781 34.714844 28.605469 34.503906 28.304688 33.894531 C 28.074219 33.425781 28.035156 33.160156 28.03125 32.050781 C 28.03125 30.921875 28.066406 30.679688 28.304688 30.191406 C 28.699219 29.390625 29.242188 29.011719 30.085938 28.949219 C 31.253906 28.867188 31.929688 29.441406 32.28125 30.820312 C 32.714844 32.511719 32.238281 34.308594 31.199219 34.90625 C 30.652344 35.21875 29.839844 35.253906 29.324219 34.988281 Z M 19.679688 38.125 C 21.960938 37.695312 23.257812 36.367188 23.257812 34.460938 C 23.257812 32.773438 22.421875 31.789062 20.109375 30.757812 C 18.785156 30.164062 18.308594 29.796875 18.308594 29.363281 C 18.308594 29.003906 18.761719 28.609375 19.292969 28.511719 C 19.808594 28.414062 21.179688 28.652344 21.988281 28.980469 L 22.667969 29.253906 L 22.667969 26.25 L 21.929688 26.085938 C 21.476562 25.984375 20.519531 25.925781 19.425781 25.925781 C 17.878906 25.925781 17.578125 25.964844 16.996094 26.195312 C 15.292969 26.871094 14.484375 28.023438 14.5 29.753906 C 14.511719 31.371094 15.367188 32.382812 17.492188 33.292969 C 18.746094 33.828125 19.25 34.238281 19.25 34.71875 C 19.25 35.746094 17.542969 35.871094 15.730469 34.980469 C 15.238281 34.734375 14.792969 34.515625 14.742188 34.492188 C 14.695312 34.464844 14.65625 35.167969 14.65625 36.050781 C 14.65625 37.644531 14.65625 37.652344 14.945312 37.765625 C 16.035156 38.175781 18.4375 38.363281 19.679688 38.125 Z M 45.761719 36.644531 L 45.761719 35.289062 L 41.640625 35.289062 L 41.640625 25.980469 L 37.988281 25.980469 L 37.988281 38 L 45.765625 38 L 45.765625 36.644531 Z M 33.039062 12.898438 C 36.667969 12.648438 39.386719 12.171875 41.78125 11.371094 C 44.167969 10.574219 45.574219 9.609375 45.890625 8.558594 C 46.011719 8.152344 46.003906 7.996094 45.832031 7.554688 C 45.074219 5.5625 40.820312 4.03125 34.328125 3.410156 C 31.546875 3.144531 26.496094 3.230469 23.847656 3.589844 C 19.804688 4.132812 16.523438 5.148438 15.066406 6.304688 C 12.113281 8.640625 15.234375 11.210938 22.492188 12.417969 C 25.636719 12.945312 29.714844 13.128906 33.039062 12.898438 Z M 33.039062 12.898438 " fill-opacity="1" fill-rule="nonzero"/></svg>

<svg xmlns="http://www.w3.org/2000/svg" width="80" zoomAndPan="magnify" viewBox="0 0 60 60" height="80" preserveAspectRatio="xMidYMid meet" xmlns:v="https://vecta.io/nano"><path fill="#737373" d="M26.438 59.961c-5.617-.402-11.168-1.816-14.57-3.711-1.941-1.078-3.418-2.402-3.996-3.582l-.344-.703V7.895l.27-.555C9.02 4.863 12.91 2.629 18.344 1.293c1.844-.457 4.508-.91 6.68-1.137 2.219-.234 8.098-.199 10.313.063 5.879.691 10.883 2.238 13.969 4.316 1.188.805 2.41 2.086 2.824 2.969l.352.758-.027 21.969-.031 21.969-.285.578c-.156.32-.629.945-1.051 1.391-2.562 2.719-8.066 4.73-15.281 5.586-1.469.176-7.859.316-9.367.207zm10.352-18.879c-.023-.059-.863-.805-1.867-1.664L33 37.77c-.055-.051.133-.227.414-.391s.813-.617 1.188-1.012c1.098-1.152 1.617-2.574 1.617-4.434 0-1.836-.559-3.312-1.676-4.441-1.129-1.141-2.422-1.629-4.309-1.629-2.906 0-5.137 1.695-5.848 4.445-.246.945-.246 2.855 0 3.695.645 2.184 2.395 3.773 4.57 4.148.738.125.836.18 1.34.727.297.328.91.98 1.359 1.449l.82.855h2.176c1.195 0 2.156-.047 2.137-.102zm-7.465-6.094c-.523-.273-.719-.484-1.02-1.094-.23-.469-.27-.734-.273-1.844 0-1.129.035-1.371.273-1.859.395-.801.938-1.18 1.781-1.242 1.168-.082 1.844.492 2.195 1.871.434 1.691-.043 3.488-1.082 4.086-.547.313-1.359.348-1.875.082zm-9.645 3.137c2.281-.43 3.578-1.758 3.578-3.664 0-1.687-.836-2.672-3.148-3.703-1.324-.594-1.801-.961-1.801-1.395 0-.359.453-.754.984-.852.516-.098 1.887.141 2.695.469l.68.273V26.25l-.738-.164c-.453-.102-1.41-.16-2.504-.16-1.547 0-1.848.039-2.43.27-1.703.676-2.512 1.828-2.496 3.559.012 1.617.867 2.629 2.992 3.539 1.254.535 1.758.945 1.758 1.426 0 1.027-1.707 1.152-3.52.262l-.988-.488c-.047-.027-.086.676-.086 1.559 0 1.594 0 1.602.289 1.715 1.09.41 3.492.598 4.734.359zm26.082-1.48v-1.355h-4.121V25.98h-3.652V38h7.777v-1.355zM33.039 12.898c3.629-.25 6.348-.727 8.742-1.527 2.387-.797 3.793-1.762 4.109-2.812.121-.406.113-.562-.059-1.004-.758-1.992-5.012-3.523-11.504-4.145-2.781-.266-7.832-.18-10.48.18-4.043.543-7.324 1.559-8.781 2.715-2.953 2.336.168 4.906 7.426 6.113 3.145.527 7.223.711 10.547.48zm0 0"/></svg>
